src/lib/packages/icons/src/assets/line/archive.svg

<svg xmlns="http://www.w3.org/2000/svg" width="24" height="24" fill="none"><path fill="currentColor" d="M19.5 2.25h-15c-1.409 0-2.25.841-2.25 2.25V8c0 .414.336.75.75.75h.25V18c0 2.418 1.332 3.75 3.75 3.75h10c2.418 0 3.75-1.332 3.75-3.75V8.75H21a.75.75 0 0 0 .75-.75V4.5c0-1.409-.841-2.25-2.25-2.25ZM3.75 4.5c0-.589.161-.75.75-.75h15c.589 0 .75.161.75.75v2.75H3.75V4.5ZM19.25 18c0 1.577-.673 2.25-2.25 2.25H7c-1.577 0-2.25-.673-2.25-2.25V8.75h14.5V18Zm-10-6a.75.75 0 0 1 .75-.75h4a.75.75 0 0 1 0 1.5h-4a.75.75 0 0 1-.75-.75Z"/></svg>

<svg width="24" height="24" viewBox="0 0 24 24" fill="none" xmlns="http://www.w3.org/2000/svg">
<path d="M19.5 2.25H4.5C3.091 2.25 2.25 3.091 2.25 4.5V8C2.25 8.414 2.586 8.75 3 8.75H3.25V18C3.25 20.418 4.582 21.75 7 21.75H17C19.418 21.75 20.75 20.418 20.75 18V8.75H21C21.414 8.75 21.75 8.414 21.75 8V4.5C21.75 3.091 20.909 2.25 19.5 2.25ZM3.75 4.5C3.75 3.911 3.911 3.75 4.5 3.75H19.5C20.089 3.75 20.25 3.911 20.25 4.5V7.25H3.75V4.5ZM19.25 18C19.25 19.577 18.577 20.25 17 20.25H7C5.423 20.25 4.75 19.577 4.75 18V8.75H19.25V18ZM9.25 12C9.25 11.586 9.586 11.25 10 11.25H14C14.414 11.25 14.75 11.586 14.75 12C14.75 12.414 14.414 12.75 14 12.75H10C9.586 12.75 9.25 12.414 9.25 12Z" fill="currentColor"/>
</svg>
